X: 1948
T: Vücud İkliminin Sultanı Sensin
C: Hacı Ârif Bey
O: Turkey
F: http://compmusic.upf.edu/node/140
N: nihavent--sarki--yuruksemai_ii--vucud_ikliminin--haci_arif_bey
N: makam= nihavent
N: form= sarki
N: usul= yuruksemai_ii = 6/8
M: 6/8
L: 1/16
K: C _B _e  
Q: 1/4=120
%%MIDI tuningsystem comma53
B2A3GG6  | D2E2 ^F2G6  | d4 c2dc B4  | c2d3cdc BAG2  | 
w:  Vü cud  *  ik  |  li *  mi nin   |  sul *  ta  |  nı  sen *  sin    | 
B2A3GG6  | D2E2 ^F2G6  | d6^c6  | d2e2 {^f}edd6  | \
w:  Vü cud  *  ik  |  li *  mi nin   |  sul ta  |  nı  sen *  *  *  sin    | 
c2d4d2 c2B2  | c2B2 {c}BAB4z2  | 
w:  E fen dim   |  der *  *  di *  min   | 
B2A2 B2c2 d3c  | c2B2 A2BA G^FG2  | B2AG {A}G^FG4z2  | 
w:  der *  *  ma  |  nı  sen *  sin    |  E fen *  *  *  *  dim   | 
BAG2 {A}G^FG4z2  | d2^c2 e2d2 =c2B2  | \
w:  der *  *  *  di *  min   |  der *  *  ma  | 
BAG2 {A}G^FG6  | ^f2g4g2 f2e2  | 
w:  nı  *  sen *  *  *  sin    |  Bu  cis mi   | 
e4 {^f}edd6  | g2^f2 g2a2 b4  | a2g2 b2ag ^fed2  | \
w:  nâ *  tû *  vâ  |  nın  *  *  câ  |  nı sın  *  sen   | 
^f2g4g2 f2e2  | 
w:  Bu  cis mi   | 
e4 {^f}edd6  | ^c4 d2ed g3^f  | ^f2e2 {f}edd4z2  | \
w:  nâ *  tû *  vâ  |  nın  *  câ  |  nı  sın  *  *  *  sen   | 
c2d4d2 c2B2  | 
w:  E fen dim   | 
c2B2 {c}BAB4z2  | B2A2 B2c2 d3c  | c2B2 A2BA G^FG2  | \
w:  der *  *  di *  min   |  der *  *  ma  |  nı  sen *  sin    | 
B2AG {A}G^FG4z2  | 
w:  E fen *  *  *  *  dim   | 
BAG2 {A}G^FG4z2  | d2^c2 e2d2 =c2B2  | \
w:  der *  *  *  di *  min   |  der *  *  ma  | 
BAG2 {A}G^FG6  | |


